app/assets/images/simple_logo_sandbox.svg

<?xml version="1.0" encoding="UTF-8"?>
<svg width="410px" height="410px" viewBox="0 0 410 410" version="1.1" xmlns="http://www.w3.org/2000/svg" xmlns:xlink="http://www.w3.org/1999/xlink">
    <!-- Generator: Sketch 55.2 (78181) - https://sketchapp.com -->
    <title>09 Assets/storeIcon_demo_512px</title>
    <desc>Created with Sketch.</desc>
    <g id="09-Assets" stroke="none" stroke-width="1" fill="none" fill-rule="evenodd">
        <g id="09-Assets/storeIcon_experiments_512px" transform="translate(-51.000000, -51.000000)">
            <polygon id="bounds" points="0 0 512 0 512 512 0 512"></polygon>
            <path d="M256,452 C335.529004,452 400,387.529004 400,308 C400,236 352,152 256,56 C160,152 112,236 112,308 C112,387.529004 176.470996,452 256,452 Z" id="Oval-Copy" fill="#5300E0" fill-rule="nonzero"></path>
            <path d="M169.944361,373.244511 C163.73419,365.481796 164.992774,354.154533 172.755489,347.944361 C180.518204,341.73419 191.845467,342.992774 198.055639,350.755489 C223.657068,382.757276 270.353702,387.945791 302.355489,362.344361 C306.634498,358.921155 310.521155,355.034498 313.944361,350.755489 C320.154533,342.992774 331.481796,341.73419 339.244511,347.944361 C347.007226,354.154533 348.26581,365.481796 342.055639,373.244511 C336.971688,379.599449 331.199449,385.371688 324.844511,390.455639 C277.317294,428.477412 207.966135,420.771728 169.944361,373.244511 Z" id="Path-2" fill="#FFFFFF" fill-rule="nonzero"></path>
            <g id="Group" transform="translate(88.000000, 192.000000)" fill="#EDE2FF" fill-rule="nonzero">
                <rect id="Rectangle" x="0" y="0" width="336" height="128"></rect>
            </g>
            <text id="SBX" font-family="Metropolis-Bold, Metropolis" font-size="100" font-weight="bold" fill="#0C3966">
                <tspan x="157.35" y="292">SBX</tspan>
            </text>
        </g>
    </g>
</svg>

<svg xmlns="http://www.w3.org/2000/svg" width="512" height="512" viewBox="0 0 512 512">
    <g fill="none" fill-rule="evenodd">
        <path d="M0 0h512v512H0z"/>
        <path fill="#F35" fill-rule="nonzero" d="M256 452c79.529 0 144-64.471 144-144 0-72-48-156-144-252-96 96-144 180-144 252 0 79.529 64.471 144 144 144z"/>
        <path fill="#FFF" fill-rule="nonzero" d="M169.944 373.245c-6.21-7.763-4.951-19.09 2.811-25.3 7.763-6.21 19.09-4.952 25.3 2.81 25.602 32.002 72.299 37.19 104.3 11.59a74.205 74.205 0 0 0 11.59-11.59c6.21-7.762 17.537-9.02 25.3-2.81 7.762 6.21 9.02 17.537 2.81 25.3a110.205 110.205 0 0 1-17.21 17.21c-47.528 38.022-116.879 30.317-154.9-17.21z"/>
        <path fill="#FFF8E0" fill-rule="nonzero" d="M88 192h336v128H88z"/>
        <path fill="#2F363D" d="M189.924 289.152c-11.424 0-21.6-3.84-29.28-10.944l8.16-9.696c6.24 5.376 13.344 8.64 21.696 8.64 7.104 0 10.752-3.264 10.752-7.392 0-4.704-3.84-6.144-13.92-8.448-13.92-3.168-23.808-7.104-23.808-19.872 0-12.192 9.984-20.544 24.384-20.544 10.752 0 19.104 3.36 25.824 9.12l-7.392 10.176c-5.856-4.704-12.48-7.296-18.816-7.296-6.048 0-9.696 3.168-9.696 7.104 0 4.8 3.936 6.336 14.112 8.64 14.208 3.168 23.616 7.392 23.616 19.584 0 12.576-9.504 20.928-25.632 20.928zM226.308 288v-65.952h33.408c11.808 0 19.968 6.912 19.968 16.512 0 6.72-3.36 11.616-9.216 14.688 7.68 3.456 12.096 9.6 12.096 16.896 0 10.56-9.024 17.856-21.6 17.856h-34.656zm14.112-39.36h15.744c5.28 0 9.024-3.072 9.024-7.296 0-4.128-3.744-7.2-9.024-7.2H240.42v14.496zm0 27.264h17.952c5.664 0 9.696-3.36 9.696-8.064 0-4.704-4.032-8.064-9.696-8.064H240.42v16.128zm112.512-53.856L328.74 254.88 352.932 288h-16.8l-15.744-21.6-15.936 21.6h-16.416l24.096-32.832-24.096-33.12h16.704l15.84 21.6 15.84-21.6h16.512z"/>
    </g>
</svg>
